X:094 
T:Kerry Border* (polka), The
F:file ID: cre.5/094kerry_b
B:CRE5.093 (gan ainm)
M:2/4
L:1/8
Q:120
R:polka
K:D
D/E/|F/G/A/B/ Ad|Bd Ad|F/G/A/B/ Ad|fe eA/G/|
F/G/A/B/ Ad|Bd Ad|Be/d/ c/A/B/c/|dfd :|
|:f/g/|a/g/a/b/ af|ge fd|Bd Ad|c/d/e/f/ ef/g/|
a/g/a/b/ af|ge fd|Be/d/ c/A/B/c/|1 df d/A/:|2
"last time" df d2-|d4|]

%%%

